X:662
T:When the Battle Is O'er
B:Army Manual of Bagpipe Tunes (1934)
Z:Nigel Gatherer
L:1/8
M:3/4
K:A
A>B | c2 a2 fe  | c2 A2 A>B | c2 e>c BA | B4
A>B | c2 a2 fe  | c2 A2 A>B | c2 e>c Bc | A4 :|
e>c | B2 A2 a>g | f2 e2 A>B | c2 e>c BA | B4
e>c | B2 A2 a>g | f2 e2 A>B | c2 e>c Bc | A4 :|]
<end>
<start>
